build/assets/4_sotz.svg

<?xml version="1.0" encoding="UTF-8" standalone="no"?>
<!-- Created with Inkscape (http://www.inkscape.org/) -->

<svg
   xmlns:dc="http://purl.org/dc/elements/1.1/"
   xmlns:cc="http://creativecommons.org/ns#"
   xmlns:rdf="http://www.w3.org/1999/02/22-rdf-syntax-ns#"
   xmlns:svg="http://www.w3.org/2000/svg"
   xmlns="http://www.w3.org/2000/svg"
   xmlns:sodipodi="http://sodipodi.sourceforge.net/DTD/sodipodi-0.dtd"
   xmlns:inkscape="http://www.inkscape.org/namespaces/inkscape"
   width="140"
   height="200"
   viewBox="0 0 140 200"
   id="svg5040"
   version="1.1"
   inkscape:version="0.91 r13725"
   sodipodi:docname="maya-months-03-sotz'-v2.svg">
  <defs
     id="defs5042">
    <inkscape:path-effect
       effect="spiro"
       id="path-effect3406"
       is_visible="true" />
    <inkscape:path-effect
       effect="spiro"
       id="path-effect3402"
       is_visible="true" />
    <inkscape:path-effect
       effect="spiro"
       id="path-effect3398"
       is_visible="true" />
    <inkscape:path-effect
       effect="spiro"
       id="path-effect3394"
       is_visible="true" />
    <inkscape:path-effect
       effect="spiro"
       id="path-effect3390"
       is_visible="true" />
    <inkscape:path-effect
       effect="spiro"
       id="path-effect3386"
       is_visible="true" />
    <inkscape:path-effect
       effect="spiro"
       id="path-effect3382"
       is_visible="true" />
    <inkscape:path-effect
       effect="spiro"
       id="path-effect3378"
       is_visible="true" />
    <inkscape:path-effect
       effect="spiro"
       id="path-effect3374"
       is_visible="true" />
    <inkscape:path-effect
       effect="spiro"
       id="path-effect3370"
       is_visible="true" />
    <inkscape:path-effect
       effect="spiro"
       id="path-effect5010"
       is_visible="true" />
    <inkscape:path-effect
       effect="spiro"
       id="path-effect5006"
       is_visible="true" />
    <inkscape:path-effect
       effect="spiro"
       id="path-effect5001"
       is_visible="true" />
    <inkscape:path-effect
       effect="spiro"
       id="path-effect4997"
       is_visible="true" />
    <inkscape:path-effect
       effect="spiro"
       id="path-effect4993"
       is_visible="true" />
    <inkscape:path-effect
       effect="spiro"
       id="path-effect4989"
       is_visible="true" />
    <inkscape:path-effect
       effect="spiro"
       id="path-effect4985"
       is_visible="true" />
    <inkscape:path-effect
       effect="spiro"
       id="path-effect4981"
       is_visible="true" />
  </defs>
  <sodipodi:namedview
     id="base"
     pagecolor="#ffffff"
     bordercolor="#666666"
     borderopacity="1.0"
     inkscape:pageopacity="0.0"
     inkscape:pageshadow="2"
     inkscape:zoom="18.251953"
     inkscape:cx="23.109641"
     inkscape:cy="41.515666"
     inkscape:document-units="px"
     inkscape:current-layer="layer1"
     showgrid="false"
     units="px"
     inkscape:window-width="1366"
     inkscape:window-height="704"
     inkscape:window-x="0"
     inkscape:window-y="27"
     inkscape:window-maximized="1" />
  <metadata
     id="metadata5045">
    <rdf:RDF>
      <cc:Work
         rdf:about="">
        <dc:format>image/svg+xml</dc:format>
        <dc:type
           rdf:resource="http://purl.org/dc/dcmitype/StillImage" />
        <dc:title />
      </cc:Work>
    </rdf:RDF>
  </metadata>
  <g
     inkscape:label="Calque 1"
     inkscape:groupmode="layer"
     id="layer1"
     transform="translate(0,-852.36216)">
    <path
       style="fill:none;fill-rule:evenodd;stroke:#000000;stroke-width:1px;stroke-linecap:butt;stroke-linejoin:miter;stroke-opacity:1"
       d="m 102.49189,965.70313 c 2.22873,-3.919 5.88952,-7.00244 10.1303,-8.53265 4.44029,-1.60219 9.28002,-1.50773 13.97556,-1.99259 1.33322,-0.13767 2.66779,-0.3237 4.0075,-0.28345 1.33971,0.0402 2.70413,0.32179 3.83037,1.04844 1.47989,0.95483 2.41017,2.59543 2.86257,4.29753 0.45239,1.70209 0.47841,3.48441 0.49856,5.24548 0.14152,12.36916 0.12758,24.7917 -1.63875,37.03491 -0.97569,6.7629 -2.5021,13.5017 -5.33158,19.7213 -2.82949,6.2196 -7.02923,11.9245 -12.63936,15.8252 -5.95775,4.1424 -13.16529,6.0582 -20.296598,7.3994 -16.15601,3.0384 -32.700096,3.5023 -49.129154,2.9239 -6.694011,-0.2356 -13.425893,-0.6491 -19.933263,-2.2364 -6.507371,-1.5873 -12.828717,-4.415 -17.734319,-8.9757 -2.3529486,-2.1875 -4.3929681,-4.824 -5.3236742,-7.899 -0.3884478,-1.2834 -0.577625,-2.6436 -0.3940988,-3.9719 0.1835261,-1.3283 0.7598386,-2.6241 1.7355209,-3.5439 0.8377883,-0.7898 1.9284499,-1.271 3.0475931,-1.5416 1.119143,-0.2705 2.275393,-0.3433 3.424961,-0.408 1.149567,-0.065 2.30545,-0.1232 3.430821,-0.3666 1.12537,-0.2434 2.229704,-0.683 3.104771,-1.4313 0.499754,-0.4274 0.922884,-0.9525 1.487273,-1.2899 0.590198,-0.3529 1.29586,-0.4731 1.983372,-0.4603 0.687512,0.013 1.365679,0.1512 2.040478,0.2834 2.364834,0.4634 4.755982,0.8595 7.165773,0.8688 2.40979,0.01 4.852911,-0.3825 7.023317,-1.4296 0.976494,-0.4711 1.894747,-1.0749 2.668045,-1.8349 0.773297,-0.7599 1.399216,-1.6795 1.759941,-2.7019 0.360725,-1.0225 0.449022,-2.1491 0.187589,-3.2013 -0.261434,-1.0522 -0.882139,-2.0226 -1.766565,-2.6497 -0.720697,-0.511 -1.587322,-0.7829 -2.45951,-0.9238 -0.872187,-0.1409 -1.758806,-0.1579 -2.641095,-0.204 -0.882289,-0.046 -1.770836,-0.1229 -2.616694,-0.378 -0.845858,-0.2551 -1.653964,-0.7017 -2.215269,-1.384 -0.638979,-0.7767 -0.909991,-1.7906 -1.060527,-2.78497 -0.150537,-0.99442 -0.19918,-2.00916 -0.471947,-2.97721 -0.366601,-1.30108 -1.132755,-2.47245 -2.108126,-3.40832 -0.975372,-0.93586 -2.154743,-1.64341 -3.402173,-2.1641 -2.494858,-1.04138 -5.224249,-1.34107 -7.900078,-1.72673 -4.468365,-0.64401 -8.8979865,-1.55672 -13.2569744,-2.73156 0.1585129,-5.83167 0.238885,-11.66547 0.2410872,-17.49929 0.00269,-7.11941 -0.1110351,-14.23835 -0.2520535,-21.35636 C 4.3271968,938.0538 4.0749372,928.04623 3.8954699,918.03721 3.6772364,905.86618 3.5673079,893.67297 4.5474159,881.5395 c 0.2773495,-3.43351 0.6473797,-6.88749 1.6786472,-10.1742 1.0312676,-3.2867 2.7717158,-6.42628 5.4108939,-8.64002 1.806906,-1.51563 4.04076,-2.57066 6.391026,-2.76637 2.350266,-0.19571 4.807281,0.51879 6.538927,2.11987 1.456878,1.34703 2.338626,3.24759 2.649165,5.20732 0.31054,1.95973 0.07819,3.97747 -0.449473,5.89021 -1.055328,3.82547 -3.245428,7.22613 -4.785683,10.88339 -2.758255,6.54934 -3.382405,13.82842 -2.972011,20.92302 0.410394,7.0946 1.814119,14.08782 2.972011,21.09932 0.610671,3.69786 1.157434,7.42326 2.270148,11.00222 1.112714,3.57896 2.83101,7.04215 5.487824,9.68571 1.674177,1.66582 3.723648,2.98803 5.997162,3.62754 2.273513,0.63951 4.775401,0.56594 6.93279,-0.39506 1.61691,-0.72024 3.012701,-1.92832 3.95742,-3.4252 2.056399,1.21655 3.922582,2.75391 5.510298,4.53938 0.885638,0.99595 1.687585,2.07084 2.660284,2.98195 0.642684,0.60199 1.356311,1.12818 2.121382,1.56419 -1.790469,3.74678 -3.106078,7.72017 -3.905422,11.79512 -0.297419,1.5162 -0.52431,3.05615 -0.479436,4.60059 0.04487,1.54445 0.372057,3.10168 1.125934,4.45038 0.694698,1.24283 1.746233,2.28354 2.99619,2.96533 1.249956,0.68179 2.694246,1.00244 4.115284,0.91365"
       id="path3372"
       inkscape:path-effect="#path-effect3374"
       inkscape:original-d="m 102.49189,965.70313 c 0,0 6.10049,-6.72912 10.1303,-8.53265 4.2951,-1.92226 8.56625,-6.31511 13.97556,-1.99259 4.57755,3.65786 6.91877,-1.69389 7.83787,0.76499 1.0391,2.77994 2.96376,2.88428 3.36113,9.54301 0.39736,6.65872 1.49204,25.08104 -1.63875,37.03491 -3.36388,12.8438 -8.04322,26.7307 -17.97094,35.5465 -5.38452,4.7815 -13.24557,5.9369 -20.296598,7.3994 -16.063463,3.3318 -23.430982,8.5292 -49.129154,2.9239 -7.593455,-1.6563 -30.480985,-7.2007 -37.667582,-11.2121 -7.1865974,-4.0114 -2.1787354,-0.7917 -5.3236742,-7.899 -1.0297789,-2.3272 -0.3622189,-5.6253 1.3414221,-7.5158 3.0208021,-3.3521 9.0426781,-1.5942 13.0081461,-3.7475 0.576694,-0.3132 0.387319,-0.7841 1.487273,-1.2899 2.760085,-1.2693 0.755102,-0.7821 4.02385,-0.1769 3.268749,0.6058 11.81123,1.33 14.18909,-0.5608 2.81032,-2.2347 4.60176,-7.2542 2.84901,-10.3878 -1.683277,-3.0094 -7.5228,-0.4235 -9.932568,-2.8898 -1.388969,-1.4216 -0.304295,-4.1996 -1.532474,-5.76218 -3.145021,-4.00133 -8.631,-5.55006 -13.410377,-7.29915 -4.237002,-1.55059 -12.1142382,-0.63912 -13.2569744,-2.73156 0,0 0.2353283,-11.66564 0.2410872,-17.49929 0.00703,-7.11928 -1.7887792,-14.62001 -0.2520535,-21.35636 C 6.0622091,941.3266 6.3167909,932.12141 3.8954699,918.03721 1.4741488,903.953 1.269922,895.058 4.5474159,881.5395 c 1.3414788,-5.53313 1.6750112,-14.86478 7.0895411,-18.81422 3.486439,-2.54306 9.982679,-3.79864 12.929953,-0.6465 5.038626,5.38886 -2.154253,14.61606 -2.585991,21.98092 -0.819729,13.98344 -2.499275,28.23966 0,42.02234 1.314082,7.24673 2.262481,15.78473 7.757972,20.68793 3.314968,2.95769 8.608633,4.26358 12.929952,3.23248 1.696978,-0.40491 3.95742,-3.4252 3.95742,-3.4252 0,0 3.728447,2.96195 5.510298,4.53938 0.82336,0.7289 1.78673,2.36098 2.660284,2.98195 0.873554,0.62096 1.657291,0.2308 2.121382,1.56419 0.592103,3.42401 -3.39228,7.68541 -3.905422,11.79512 -0.374754,3.00137 -0.989224,6.50674 0.646498,9.05097 1.460246,2.27129 7.111474,3.87898 7.111474,3.87898"
       inkscape:connector-curvature="0"
       sodipodi:nodetypes="casssaaasssaasssaaaasazssaaaaaacsscaac" />
    <path
       style="fill:none;fill-rule:evenodd;stroke:#000000;stroke-width:1px;stroke-linecap:butt;stroke-linejoin:miter;stroke-opacity:1"
       d="m 19.753287,989.74565 -0.883648,18.21055 -14.3441556,-3.1767 0.2301208,-17.18149"
       id="path3376"
       inkscape:path-effect="#path-effect3378"
       inkscape:original-d="m 19.753287,989.74565 -0.883648,18.21055 -14.3441556,-3.1767 0.2301208,-17.18149"
       inkscape:connector-curvature="0"
       sodipodi:nodetypes="cccc" />
    <path
       style="fill:none;fill-rule:evenodd;stroke:#000000;stroke-width:1px;stroke-linecap:butt;stroke-linejoin:miter;stroke-opacity:1"
       d="m 6.2129228,1022.8069 -1.6984057,-18.2137 15.5925669,3.5557 0.958851,9.2341"
       id="path3380"
       inkscape:path-effect="#path-effect3382"
       inkscape:original-d="m 6.2129228,1022.8069 c -2.5859905,-1.9395 -1.6984057,-18.2137 -1.6984057,-18.2137 l 15.5925669,3.5557 0.958851,9.2341"
       inkscape:connector-curvature="0"
       sodipodi:nodetypes="cccc" />
    <path
       style="fill:none;fill-rule:evenodd;stroke:#000000;stroke-width:1px;stroke-linecap:butt;stroke-linejoin:miter;stroke-opacity:1"
       d="m 79.512463,995.20065 c -2.115957,-2.20282 -5.13669,-3.50922 -8.19096,-3.54242 -1.834506,-0.0199 -3.681103,0.40963 -5.284726,1.30081 -1.603623,0.89119 -2.955583,2.24948 -3.776359,3.89025 -0.938968,1.87705 -1.159507,4.07271 -0.787853,6.13841 0.371655,2.0656 1.313114,4.0043 2.563188,5.6902 2.351035,3.1707 5.846743,5.4865 9.697464,6.3541 2.756207,0.621 5.709964,0.4989 8.326036,-0.5681 1.595206,-0.6506 3.052042,-1.6471 4.213173,-2.9198 1.161132,-1.2727 2.022894,-2.8217 2.46116,-4.4878 0.438265,-1.6661 0.449046,-3.4469 2.04e-4,-5.1102 -0.448843,-1.6632 -1.359708,-3.20365 -2.622596,-4.37545 -1.760556,-1.63357 -4.201135,-2.51013 -6.598731,-2.37 z"
       id="path3384"
       inkscape:path-effect="#path-effect3386"
       inkscape:original-d="m 79.512463,995.20065 c -2.761073,-1.17361 -5.314244,-4.52963 -8.19096,-3.54242 -3.287101,1.12805 -7.968181,1.34087 -9.061085,5.19106 -1.092904,3.85021 0.627539,8.54831 1.775335,11.82861 1.276372,3.6477 5.958786,5.3757 9.697464,6.3541 2.691168,0.7043 6.201551,1.2277 8.326036,-0.5681 4.422486,-3.7383 6.804222,-11.7983 4.051941,-16.89325 -1.11081,-2.05629 -6.598731,-2.37 -6.598731,-2.37 z"
       inkscape:connector-curvature="0"
       sodipodi:nodetypes="csssaaac" />
    <path
       style="fill:none;fill-rule:evenodd;stroke:#000000;stroke-width:1px;stroke-linecap:butt;stroke-linejoin:miter;stroke-opacity:1"
       d="m 46.547829,946.76997 c 2.278957,-4.53989 6.675786,-7.95964 11.636957,-9.05097 1.326214,-0.29173 2.699155,-0.42493 4.045634,-0.24901 1.346478,0.17592 2.668439,0.67354 3.712338,1.542 1.338665,1.11369 2.126279,2.7333 2.987652,4.2467 0.430687,0.7567 0.891381,1.50172 1.462349,2.15904 0.570967,0.65733 1.258997,1.22739 2.05884,1.57139 0.72824,0.3132 1.532459,0.43097 2.324513,0.39814 0.792054,-0.0328 1.573241,-0.21296 2.321471,-0.47484 1.640332,-0.57411 3.138767,-1.54903 4.328261,-2.81607"
       id="path3388"
       inkscape:path-effect="#path-effect3390"
       inkscape:original-d="m 46.547829,946.76997 c 0,0 6.873102,-7.84497 11.636957,-9.05097 2.541486,-0.64339 5.490412,-0.0228 7.757972,1.29299 2.968337,1.72242 3.396509,6.53106 6.508841,7.97713 1.404659,0.65264 3.16477,0.37606 4.645984,-0.0767 1.646054,-0.50317 4.328261,-2.81607 4.328261,-2.81607"
       inkscape:connector-curvature="0"
       sodipodi:nodetypes="caaaac" />
    <path
       style="fill:none;fill-rule:evenodd;stroke:#000000;stroke-width:1px;stroke-linecap:butt;stroke-linejoin:miter;stroke-opacity:1"
       d="m 57.120362,955.75823 c 2.775473,-0.16296 5.509798,-0.98877 7.911474,-2.3894 2.710998,-1.58102 4.990177,-3.89442 6.530629,-6.62867"
       id="path3392"
       inkscape:path-effect="#path-effect3394"
       inkscape:original-d="m 57.120362,955.75823 c 0,0 5.553022,-0.96579 7.911474,-2.3894 2.655489,-1.60291 6.530629,-6.62867 6.530629,-6.62867"
       inkscape:connector-curvature="0"
       sodipodi:nodetypes="cac" />
    <path
       style="fill:none;fill-rule:evenodd;stroke:#000000;stroke-width:1px;stroke-linecap:butt;stroke-linejoin:miter;stroke-opacity:1"
       d="m 115.12045,936.05349 c 0.70528,0.3785 1.22033,1.04646 1.55959,1.77143 0.33926,0.72498 0.52008,1.51207 0.70033,2.29194 0.43315,1.87404 0.87667,3.74742 1.19171,5.64489 0.26323,1.58542 0.44001,3.20046 0.99124,4.71009 0.27562,0.75482 0.64559,1.47984 1.14286,2.11106 0.49727,0.63122 1.12534,1.16711 1.85345,1.50706 0.88667,0.41397 1.888,0.52484 2.86616,0.49721 0.97816,-0.0276 1.94712,-0.18731 2.92034,-0.28935 0.71118,-0.0746 1.42745,-0.11869 2.12837,-0.26026 0.70092,-0.14157 1.39409,-0.38689 1.96053,-0.82333 0.67547,-0.52044 1.13125,-1.28383 1.41946,-2.08636 0.2882,-0.80253 0.42204,-1.65076 0.55677,-2.49276 0.47039,-2.93973 0.96977,-5.87635 1.30938,-8.83405 1.26511,-11.01793 0.29878,-22.16235 0.70132,-33.24537 0.27026,-7.44102 1.15666,-14.91572 0.25326,-22.30664 -0.4517,-3.69546 -1.3585,-7.35769 -2.95621,-10.72039 -1.59771,-3.36271 -3.9063,-6.42237 -6.88501,-8.6557 -4.59006,-3.44145 -10.72342,-4.73661 -16.31273,-3.44362 -5.58932,1.29298 -10.531126,5.15055 -13.141211,10.25934 -1.606404,3.14425 -2.343714,6.67646 -2.568019,10.20017 -0.224305,3.52372 0.04766,7.05881 0.365498,10.57532 1.002997,11.09694 2.463489,22.29355 0.953386,33.33292 -0.345444,2.52532 -0.846804,5.05294 -0.729309,7.59906 0.05875,1.27306 0.275039,2.54597 0.730474,3.73623 0.455435,1.19026 1.156234,2.2972 2.102649,3.15068 1.091261,0.98411 2.503452,1.61084 3.967142,1.74095 1.46369,0.13011 2.97025,-0.2405 4.19625,-1.05059 1.49219,-0.98598 2.50355,-2.54117 3.8334,-3.7371 0.66493,-0.59796 1.42477,-1.11262 2.28126,-1.36972 0.8565,-0.25711 1.8197,-0.23598 2.60766,0.18689 z"
       id="path3396"
       inkscape:path-effect="#path-effect3398"
       inkscape:original-d="m 115.12045,936.05349 c 1.67789,0.36564 2.05793,2.08271 2.25992,4.06337 0.202,1.98066 0.22597,4.22491 1.19171,5.64489 1.2163,1.78838 2.37896,6.53856 3.98755,8.32821 1.60859,1.78966 3.66311,0.61879 5.7865,0.20786 1.3307,-0.25752 3.03196,-0.087 4.0889,-1.08359 1.05694,-0.99653 1.46956,-3.16007 1.97623,-4.57912 1.01334,-2.83811 0.64966,-6.20477 1.30938,-8.83405 2.69757,-10.75099 1.83546,-22.21929 0.70132,-33.24537 -1.45877,-14.18226 -0.77494,-32.02561 -9.58796,-41.68273 -8.02744,-8.7963 -22.77496,-0.7305 -29.453941,6.81572 -4.615494,5.2148 -1.934381,13.81668 -2.202521,20.77549 -0.427989,11.10728 -0.0059,22.25887 0.953386,33.33292 0.42109,4.86111 -1.448079,11.14056 2.103814,14.48597 1.987912,1.87235 5.495192,1.27192 8.163392,0.69036 3.2615,-0.71088 6.48877,-5.40665 8.72232,-4.91993 z"
       inkscape:connector-curvature="0"
       sodipodi:nodetypes="ssssssssasaaaaas" />
    <path
       style="fill:none;fill-rule:evenodd;stroke:#000000;stroke-width:1px;stroke-linecap:butt;stroke-linejoin:miter;stroke-opacity:1"
       d="m 20.863213,918.25844 c 6.420375,-9.33709 15.713067,-16.66977 26.287248,-20.74275 11.444905,-4.40837 24.44836,-4.93813 36.028577,-0.89856 4.527086,1.5792 8.818433,3.83235 12.688866,6.66221"
       id="path3400"
       inkscape:path-effect="#path-effect3402"
       inkscape:original-d="m 20.863213,918.25844 c 3.232488,-3.87898 15.78875,-16.95219 26.287248,-20.74275 11.299314,-4.0797 24.329681,-3.62881 36.028577,-0.89856 4.652162,1.08571 12.688866,6.66221 12.688866,6.66221"
       inkscape:connector-curvature="0"
       sodipodi:nodetypes="caac" />
    <path
       style="fill:none;fill-rule:evenodd;stroke:#000000;stroke-width:1px;stroke-linecap:butt;stroke-linejoin:miter;stroke-opacity:1"
       d="m 22.167175,884.37755 c 7.157831,-9.74975 18.254446,-16.51806 30.199133,-18.41979 9.940852,-1.58269 20.17073,0.10587 29.73889,3.23249 4.66742,1.52519 9.223529,3.3909 13.620145,5.5774"
       id="path3404"
       inkscape:path-effect="#path-effect3406"
       inkscape:original-d="m 22.167175,884.37755 c 0,0 18.691467,-15.8499 30.199133,-18.41979 9.731637,-2.17326 20.073757,0.78034 29.73889,3.23249 4.755296,1.20647 13.620145,5.5774 13.620145,5.5774"
       inkscape:connector-curvature="0"
       sodipodi:nodetypes="caac" />
  </g>
</svg>

<?xml version="1.0" encoding="UTF-8" standalone="no"?>
<!DOCTYPE svg PUBLIC "-//W3C//DTD SVG 1.1//EN" "http://www.w3.org/Graphics/SVG/1.1/DTD/svg11.dtd">
<svg width="100%" height="100%" viewBox="0 0 140 200" version="1.1" xmlns="http://www.w3.org/2000/svg" xmlns:xlink="http://www.w3.org/1999/xlink" xml:space="preserve" xmlns:serif="http://www.serif.com/" style="fill-rule:evenodd;clip-rule:evenodd;">
    <g id="Calque-1" serif:id="Calque 1" transform="matrix(1,0,0,1,0,-852.362)">
        <path id="path3372" d="M102.492,965.703C104.721,961.784 108.381,958.701 112.622,957.17C117.062,955.568 121.902,955.663 126.598,955.178C127.931,955.04 129.266,954.854 130.605,954.894C131.945,954.935 133.309,955.216 134.436,955.943C135.916,956.898 136.846,958.538 137.298,960.24C137.751,961.943 137.777,963.725 137.797,965.486C137.938,977.855 137.924,990.278 136.158,1002.52C135.182,1009.28 133.656,1016.02 130.826,1022.24C127.997,1028.46 123.797,1034.17 118.187,1038.07C112.229,1042.21 105.022,1044.13 97.89,1045.47C81.734,1048.51 65.19,1048.97 48.761,1048.39C42.067,1048.15 35.335,1047.74 28.828,1046.15C22.321,1044.57 15.999,1041.74 11.094,1037.18C8.741,1034.99 6.701,1032.36 5.77,1029.28C5.382,1028 5.192,1026.64 5.376,1025.31C5.559,1023.98 6.136,1022.68 7.111,1021.76C7.949,1020.97 9.04,1020.49 10.159,1020.22C11.278,1019.95 12.434,1019.88 13.584,1019.81C14.734,1019.75 15.889,1019.69 17.015,1019.45C18.14,1019.2 19.245,1018.76 20.12,1018.02C20.619,1017.59 21.043,1017.06 21.607,1016.73C22.197,1016.37 22.903,1016.25 23.59,1016.27C24.278,1016.28 24.956,1016.42 25.631,1016.55C27.996,1017.01 30.387,1017.41 32.797,1017.42C35.206,1017.43 37.649,1017.04 39.82,1015.99C40.796,1015.52 41.715,1014.91 42.488,1014.15C43.261,1013.39 43.887,1012.47 44.248,1011.45C44.609,1010.43 44.697,1009.3 44.435,1008.25C44.174,1007.2 43.553,1006.23 42.669,1005.6C41.948,1005.09 41.082,1004.82 40.209,1004.68C39.337,1004.54 38.451,1004.52 37.568,1004.47C36.686,1004.43 35.797,1004.35 34.952,1004.1C34.106,1003.84 33.298,1003.39 32.736,1002.71C32.097,1001.93 31.826,1000.92 31.676,999.926C31.525,998.932 31.477,997.917 31.204,996.949C30.837,995.648 30.071,994.476 29.096,993.541C28.12,992.605 26.941,991.897 25.694,991.376C23.199,990.335 20.469,990.035 17.793,989.65C13.325,989.006 8.895,988.093 4.536,986.918C4.695,981.086 4.775,975.253 4.778,969.419C4.78,962.299 4.667,955.18 4.525,948.062C4.327,938.054 4.075,928.046 3.895,918.037C3.677,905.866 3.567,893.673 4.547,881.54C4.825,878.106 5.195,874.652 6.226,871.365C7.257,868.079 8.998,864.939 11.637,862.725C13.444,861.21 15.678,860.155 18.028,859.959C20.378,859.763 22.835,860.478 24.567,862.079C26.024,863.426 26.906,865.326 27.216,867.286C27.527,869.246 27.294,871.264 26.767,873.176C25.711,877.002 23.521,880.402 21.981,884.06C19.223,890.609 18.599,897.888 19.009,904.983C19.419,912.077 20.823,919.071 21.981,926.082C22.592,929.78 23.138,933.505 24.251,937.084C25.364,940.663 27.082,944.126 29.739,946.77C31.413,948.436 33.463,949.758 35.736,950.398C38.01,951.037 40.511,950.963 42.669,950.002C44.286,949.282 45.682,948.074 46.626,946.577C48.683,947.794 50.549,949.331 52.137,951.117C53.022,952.113 53.824,953.187 54.797,954.099C55.44,954.701 56.153,955.227 56.918,955.663C55.128,959.41 53.812,963.383 53.013,967.458C52.715,968.974 52.488,970.514 52.533,972.058C52.578,973.603 52.905,975.16 53.659,976.509C54.354,977.752 55.406,978.792 56.655,979.474C57.905,980.156 59.35,980.477 60.771,980.388" style="fill:none;stroke:white;stroke-width:2px;"/>
        <path id="path3376" d="M19.753,989.746L18.87,1007.96L4.525,1004.78L4.756,987.598" style="fill:none;stroke:white;stroke-width:2px;"/>
        <path id="path3380" d="M6.213,1022.81L4.515,1004.59L20.107,1008.15L21.066,1017.38" style="fill:none;stroke:white;stroke-width:2px;"/>
        <path id="path3384" d="M79.512,995.201C77.397,992.998 74.376,991.691 71.322,991.658C69.487,991.638 67.64,992.068 66.037,992.959C64.433,993.85 63.081,995.209 62.26,996.849C61.321,998.726 61.101,1000.92 61.473,1002.99C61.844,1005.05 62.786,1006.99 64.036,1008.68C66.387,1011.85 69.882,1014.16 73.733,1015.03C76.489,1015.65 79.443,1015.53 82.059,1014.46C83.654,1013.81 85.111,1012.82 86.272,1011.54C87.434,1010.27 88.295,1008.72 88.734,1007.06C89.172,1005.39 89.183,1003.61 88.734,1001.95C88.285,1000.28 87.374,998.742 86.111,997.571C84.351,995.937 81.91,995.061 79.512,995.201Z" style="fill:none;stroke:white;stroke-width:2px;"/>
        <path id="path3388" d="M46.548,946.77C48.827,942.23 53.224,938.81 58.185,937.719C59.511,937.427 60.884,937.294 62.23,937.47C63.577,937.646 64.899,938.144 65.943,939.012C67.281,940.126 68.069,941.745 68.93,943.259C69.361,944.015 69.822,944.76 70.393,945.418C70.964,946.075 71.652,946.645 72.452,946.989C73.18,947.302 73.984,947.42 74.776,947.387C75.568,947.354 76.349,947.174 77.098,946.912C78.738,946.338 80.236,945.363 81.426,944.096" style="fill:none;stroke:white;stroke-width:2px;"/>
        <path id="path3392" d="M57.12,955.758C59.896,955.595 62.63,954.769 65.032,953.369C67.743,951.788 70.022,949.474 71.562,946.74" style="fill:none;stroke:white;stroke-width:2px;"/>
        <path id="path3396" d="M115.12,936.053C115.826,936.432 116.341,937.1 116.68,937.825C117.019,938.55 117.2,939.337 117.38,940.117C117.814,941.991 118.257,943.864 118.572,945.762C118.835,947.347 119.012,948.962 119.563,950.472C119.839,951.227 120.209,951.952 120.706,952.583C121.203,953.214 121.832,953.75 122.56,954.09C123.446,954.504 124.448,954.615 125.426,954.587C126.404,954.56 127.373,954.4 128.346,954.298C129.057,954.223 129.774,954.179 130.474,954.038C131.175,953.896 131.869,953.651 132.435,953.214C133.11,952.694 133.566,951.93 133.854,951.128C134.143,950.325 134.277,949.477 134.411,948.635C134.882,945.695 135.381,942.759 135.721,939.801C136.986,928.783 136.019,917.639 136.422,906.556C136.692,899.115 137.579,891.64 136.675,884.249C136.224,880.554 135.317,876.891 133.719,873.529C132.121,870.166 129.813,867.106 126.834,864.873C122.244,861.432 116.111,860.136 110.521,861.429C104.932,862.722 99.99,866.58 97.38,871.689C95.774,874.833 95.036,878.365 94.812,881.889C94.588,885.413 94.86,888.948 95.178,892.464C96.181,903.561 97.641,914.758 96.131,925.797C95.785,928.322 95.284,930.85 95.402,933.396C95.46,934.669 95.677,935.942 96.132,937.132C96.588,938.323 97.288,939.43 98.235,940.283C99.326,941.267 100.738,941.894 102.202,942.024C103.666,942.154 105.172,941.784 106.398,940.973C107.89,939.987 108.902,938.432 110.232,937.236C110.896,936.638 111.656,936.124 112.513,935.867C113.369,935.609 114.332,935.631 115.12,936.053Z" style="fill:none;stroke:white;stroke-width:2px;"/>
        <path id="path3400" d="M20.863,918.258C27.284,908.921 36.576,901.589 47.15,897.516C58.595,893.107 71.599,892.578 83.179,896.617C87.706,898.196 91.997,900.449 95.868,903.279" style="fill:none;stroke:white;stroke-width:2px;"/>
        <path id="path3404" d="M22.167,884.378C29.325,874.628 40.422,867.859 52.366,865.958C62.307,864.375 72.537,866.064 82.105,869.19C86.773,870.715 91.329,872.581 95.725,874.768" style="fill:none;stroke:white;stroke-width:2px;"/>
    </g>
</svg>
